flaticon/sport/stopwatch-1.svg

<svg xmlns="http://www.w3.org/2000/svg" width="32" height="32" viewBox="0 0 24 24">
    <path d="M 13.699219 4.285156 C 14.179688 3.832031 14.484375 3.195312 14.484375 2.484375 C 14.484375 1.113281 13.371094 0 12 0 C 10.628906 0 9.515625 1.113281 9.515625 2.484375 C 9.515625 3.195312 9.820312 3.832031 10.300781 4.285156 C 5.632812 5.097656 2.070312 9.171875 2.070312 14.070312 C 2.070312 19.542969 6.523438 24 12 24 C 17.476562 24 21.929688 19.542969 21.929688 14.070312 C 21.929688 9.171875 18.367188 5.097656 13.699219 4.285156 Z M 12 0.828125 C 12.914062 0.828125 13.65625 1.570312 13.65625 2.484375 C 13.65625 3.253906 13.125 3.894531 12.414062 4.078125 L 12.414062 2.898438 L 12.828125 2.898438 C 13.054688 2.898438 13.242188 2.710938 13.242188 2.484375 C 13.242188 2.253906 13.054688 2.070312 12.828125 2.070312 L 11.171875 2.070312 C 10.945312 2.070312 10.757812 2.253906 10.757812 2.484375 C 10.757812 2.710938 10.945312 2.898438 11.171875 2.898438 L 11.585938 2.898438 L 11.585938 4.078125 C 10.875 3.894531 10.34375 3.253906 10.34375 2.484375 C 10.34375 1.570312 11.085938 0.828125 12 0.828125 Z M 12 23.171875 C 6.980469 23.171875 2.898438 19.089844 2.898438 14.070312 C 2.898438 9.050781 6.980469 4.964844 12 4.964844 C 17.019531 4.964844 21.101562 9.050781 21.101562 14.070312 C 21.101562 19.089844 17.019531 23.171875 12 23.171875 Z M 12 23.171875"/>
    <path d="M19.828125 14.871094C19.601562 14.839844 19.390625 14.996094 19.355469 15.21875 19.316406 15.480469 19.261719 15.738281 19.195312 15.980469 19.136719 16.203125 19.269531 16.425781 19.488281 16.488281 19.527344 16.496094 19.558594 16.5 19.597656 16.5 19.785156 16.5 19.949219 16.371094 20 16.191406 20.070312 15.910156 20.132812 15.625 20.171875 15.347656 20.175781 15.328125 20.175781 15.300781 20.175781 15.28125 20.179688 15.078125 20.027344 14.90625 19.828125 14.871094zM4.171875 13.25C4.195312 13.253906 4.214844 13.257812 4.238281 13.257812 4.441406 13.257812 4.613281 13.109375 4.648438 12.90625 4.6875 12.640625 4.742188 12.386719 4.808594 12.144531 4.832031 12.039062 4.820312 11.925781 4.761719 11.832031 4.707031 11.734375 4.617188 11.664062 4.511719 11.636719 4.296875 11.578125 4.0625 11.714844 4.003906 11.929688 3.929688 12.207031 3.875 12.492188 3.828125 12.777344 3.824219 12.796875 3.824219 12.820312 3.824219 12.839844 3.824219 13.042969 3.972656 13.21875 4.171875 13.25zM4.652344 15.296875C4.652344 15.277344 4.652344 15.257812 4.648438 15.234375 4.605469 14.980469 4.578125 14.71875 4.5625 14.460938 4.550781 14.234375 4.355469 14.054688 4.128906 14.070312 4.023438 14.078125 3.917969 14.121094 3.84375 14.207031 3.769531 14.289062 3.730469 14.394531 3.742188 14.503906 3.753906 14.789062 3.78125 15.078125 3.828125 15.363281 3.859375 15.5625 4.035156 15.714844 4.238281 15.714844 4.257812 15.714844 4.277344 15.710938 4.304688 15.707031 4.503906 15.679688 4.652344 15.5 4.652344 15.296875zM6.75 19.351562C6.746094 19.34375 6.742188 19.339844 6.730469 19.335938 6.550781 19.152344 6.371094 18.957031 6.210938 18.757812 6.070312 18.589844 5.800781 18.558594 5.628906 18.695312 5.542969 18.765625 5.492188 18.867188 5.480469 18.972656 5.464844 19.085938 5.5 19.191406 5.570312 19.277344 5.75 19.507812 5.945312 19.722656 6.144531 19.917969 6.148438 19.921875 6.148438 19.921875 6.148438 19.925781L6.152344 19.925781C6.15625 19.929688 6.160156 19.9375 6.164062 19.941406 6.242188 20.015625 6.347656 20.0625 6.460938 20.0625 6.570312 20.0625 6.675781 20.015625 6.753906 19.9375 6.828125 19.859375 6.875 19.753906 6.875 19.644531 6.875 19.535156 6.832031 19.4375 6.757812 19.359375zM5.046875 16.742188C4.96875 16.535156 4.722656 16.417969 4.515625 16.503906 4.410156 16.542969 4.328125 16.617188 4.28125 16.722656 4.238281 16.820312 4.238281 16.933594 4.273438 17.035156 4.378906 17.304688 4.492188 17.570312 4.625 17.828125 4.695312 17.96875 4.835938 18.054688 4.996094 18.054688 5.0625 18.054688 5.121094 18.039062 5.179688 18.007812 5.320312 17.9375 5.410156 17.796875 5.410156 17.640625 5.410156 17.574219 5.394531 17.511719 5.363281 17.453125 5.25 17.226562 5.144531 16.992188 5.046875 16.742188zM19.34375 12.828125C19.34375 12.847656 19.347656 12.867188 19.351562 12.890625 19.390625 13.144531 19.417969 13.40625 19.433594 13.664062 19.445312 13.882812 19.625 14.054688 19.84375 14.054688 19.855469 14.054688 19.863281 14.054688 19.871094 14.054688 20.097656 14.042969 20.273438 13.84375 20.257812 13.621094 20.242188 13.328125 20.214844 13.039062 20.167969 12.761719 20.136719 12.535156 19.921875 12.378906 19.695312 12.414062 19.492188 12.445312 19.34375 12.625 19.34375 12.828125zM10.761719 6.71875C10.785156 6.71875 10.804688 6.71875 10.828125 6.714844 11.078125 6.675781 11.339844 6.648438 11.601562 6.632812 11.832031 6.621094 12.003906 6.425781 11.992188 6.199219 11.980469 5.96875 11.789062 5.789062 11.558594 5.808594 11.269531 5.820312 10.976562 5.855469 10.695312 5.898438 10.496094 5.929688 10.34375 6.109375 10.347656 6.308594 10.347656 6.332031 10.347656 6.351562 10.351562 6.371094 10.386719 6.574219 10.554688 6.71875 10.761719 6.71875zM18.65625 10.726562C18.765625 10.941406 18.863281 11.164062 18.949219 11.386719 19.007812 11.542969 19.164062 11.652344 19.335938 11.652344 19.386719 11.652344 19.4375 11.644531 19.480469 11.625 19.695312 11.542969 19.800781 11.300781 19.722656 11.089844 19.621094 10.824219 19.503906 10.558594 19.367188 10.300781 19.265625 10.101562 19.007812 10.019531 18.8125 10.117188 18.671875 10.1875 18.582031 10.332031 18.582031 10.488281 18.582031 10.550781 18.601562 10.617188 18.628906 10.675781zM15.371094 7.425781L15.402344 7.441406C15.621094 7.554688 15.839844 7.679688 16.046875 7.816406 16.117188 7.859375 16.191406 7.882812 16.273438 7.882812 16.414062 7.882812 16.542969 7.8125 16.621094 7.691406 16.679688 7.601562 16.699219 7.488281 16.679688 7.382812 16.65625 7.273438 16.589844 7.179688 16.496094 7.121094 16.257812 6.964844 16.003906 6.820312 15.75 6.6875 15.546875 6.585938 15.289062 6.675781 15.191406 6.871094 15.160156 6.929688 15.144531 6.992188 15.144531 7.058594 15.144531 7.214844 15.230469 7.355469 15.371094 7.425781zM13.160156 6.710938C13.410156 6.753906 13.667969 6.808594 13.921875 6.875 13.953125 6.882812 13.992188 6.886719 14.027344 6.886719 14.214844 6.886719 14.375 6.761719 14.425781 6.578125 14.453125 6.472656 14.4375 6.359375 14.382812 6.265625 14.324219 6.171875 14.238281 6.101562 14.132812 6.074219 13.867188 6.003906 13.59375 5.945312 13.3125 5.902344 13.304688 5.898438 13.296875 5.898438 13.28125 5.898438L13.261719 5.890625C13.039062 5.867188 12.84375 6.023438 12.8125 6.238281 12.808594 6.261719 12.808594 6.28125 12.808594 6.300781 12.808594 6.507812 12.957031 6.683594 13.160156 6.710938zM4.804688 10.871094C4.863281 10.898438 4.929688 10.914062 4.992188 10.914062 5.144531 10.914062 5.28125 10.832031 5.355469 10.699219L5.363281 10.6875C5.472656 10.460938 5.605469 10.234375 5.75 10.015625 5.808594 9.921875 5.832031 9.8125 5.804688 9.703125 5.785156 9.59375 5.71875 9.503906 5.628906 9.441406 5.441406 9.324219 5.175781 9.378906 5.054688 9.566406 4.898438 9.808594 4.753906 10.058594 4.621094 10.316406 4.59375 10.375 4.578125 10.4375 4.578125 10.503906 4.578125 10.660156 4.664062 10.800781 4.804688 10.871094zM17.28125 19.324219C17.277344 19.324219 17.277344 19.328125 17.273438 19.328125L17.261719 19.335938C17.082031 19.523438 16.890625 19.691406 16.699219 19.84375 16.613281 19.914062 16.558594 20.015625 16.550781 20.125 16.539062 20.234375 16.574219 20.34375 16.644531 20.429688 16.722656 20.523438 16.835938 20.582031 16.960938 20.582031 17.0625 20.582031 17.152344 20.550781 17.226562 20.488281 17.445312 20.304688 17.65625 20.113281 17.855469 19.921875 17.855469 19.914062 17.859375 19.910156 17.863281 19.910156L17.863281 19.90625C17.941406 19.828125 17.988281 19.726562 17.988281 19.613281 17.988281 19.5 17.941406 19.398438 17.863281 19.320312 17.707031 19.167969 17.433594 19.167969 17.28125 19.324219zM15.957031 20.875C15.851562 20.675781 15.601562 20.59375 15.398438 20.699219 15.167969 20.8125 14.929688 20.921875 14.683594 21.011719 14.585938 21.054688 14.503906 21.132812 14.457031 21.230469 14.414062 21.335938 14.414062 21.445312 14.449219 21.550781 14.511719 21.707031 14.664062 21.816406 14.835938 21.816406 14.886719 21.816406 14.9375 21.808594 14.984375 21.785156 15.25 21.6875 15.507812 21.570312 15.761719 21.441406L15.855469 21.394531 15.835938 21.394531C15.9375 21.320312 16 21.195312 16 21.066406 16 21 15.984375 20.933594 15.957031 20.875zM19.199219 17.253906C19 17.152344 18.746094 17.238281 18.644531 17.4375 18.527344 17.667969 18.398438 17.894531 18.257812 18.109375 18.132812 18.300781 18.1875 18.558594 18.378906 18.683594 18.445312 18.726562 18.519531 18.75 18.605469 18.75 18.746094 18.75 18.875 18.679688 18.953125 18.5625 19.109375 18.316406 19.253906 18.066406 19.382812 17.808594 19.410156 17.75 19.425781 17.683594 19.425781 17.625 19.425781 17.464844 19.339844 17.324219 19.199219 17.253906zM18.511719 9.152344C18.527344 9.039062 18.492188 8.933594 18.421875 8.851562 18.242188 8.632812 18.054688 8.421875 17.859375 8.226562L17.851562 8.214844C17.847656 8.214844 17.847656 8.210938 17.84375 8.207031 17.683594 8.050781 17.414062 8.050781 17.257812 8.210938 17.179688 8.289062 17.136719 8.390625 17.136719 8.5 17.140625 8.59375 17.167969 8.683594 17.226562 8.761719L17.222656 8.761719 17.273438 8.808594C17.449219 8.984375 17.621094 9.171875 17.78125 9.371094 17.859375 9.46875 17.976562 9.523438 18.101562 9.523438 18.199219 9.523438 18.289062 9.492188 18.363281 9.429688 18.449219 9.359375 18.5 9.261719 18.511719 9.152344zM13.183594 21.417969C12.929688 21.460938 12.671875 21.488281 12.410156 21.5 12.296875 21.507812 12.199219 21.554688 12.125 21.636719 12.050781 21.71875 12.011719 21.828125 12.019531 21.9375 12.03125 22.160156 12.210938 22.328125 12.429688 22.328125 12.4375 22.328125 12.445312 22.328125 12.457031 22.328125 12.738281 22.3125 13.027344 22.28125 13.316406 22.238281 13.515625 22.203125 13.664062 22.023438 13.664062 21.824219 13.664062 21.800781 13.664062 21.78125 13.660156 21.761719 13.621094 21.539062 13.410156 21.386719 13.183594 21.417969zM7.371094 7.699219C7.230469 7.53125 6.957031 7.503906 6.785156 7.640625 6.5625 7.820312 6.351562 8.011719 6.160156 8.207031L6.140625 8.226562C6.066406 8.300781 6.019531 8.402344 6.019531 8.511719 6.019531 8.621094 6.066406 8.726562 6.144531 8.804688 6.222656 8.882812 6.328125 8.925781 6.433594 8.925781 6.546875 8.925781 6.648438 8.882812 6.726562 8.804688L6.730469 8.800781C6.914062 8.617188 7.109375 8.445312 7.308594 8.285156 7.484375 8.140625 7.511719 7.878906 7.371094 7.699219zM9.5625 6.582031C9.480469 6.375 9.230469 6.269531 9.027344 6.347656 8.757812 6.449219 8.488281 6.566406 8.234375 6.699219 8.097656 6.769531 8.011719 6.910156 8.011719 7.066406 8.011719 7.128906 8.023438 7.195312 8.050781 7.253906 8.125 7.394531 8.269531 7.480469 8.425781 7.480469 8.492188 7.480469 8.554688 7.464844 8.609375 7.4375L8.625 7.429688C8.847656 7.316406 9.082031 7.210938 9.324219 7.117188 9.425781 7.078125 9.507812 7 9.554688 6.902344 9.597656 6.796875 9.601562 6.6875 9.5625 6.582031zM8.636719 20.714844C8.402344 20.597656 8.175781 20.464844 7.960938 20.324219 7.773438 20.210938 7.511719 20.269531 7.390625 20.449219 7.328125 20.542969 7.308594 20.652344 7.332031 20.765625 7.355469 20.871094 7.417969 20.964844 7.511719 21.023438 7.75 21.179688 8.003906 21.324219 8.261719 21.457031 8.320312 21.484375 8.386719 21.496094 8.449219 21.496094 8.605469 21.496094 8.746094 21.410156 8.820312 21.273438 8.851562 21.210938 8.863281 21.148438 8.863281 21.082031 8.863281 20.925781 8.777344 20.785156 8.636719 20.714844zM10.855469 21.425781C10.601562 21.382812 10.34375 21.332031 10.09375 21.269531 9.875 21.207031 9.640625 21.34375 9.585938 21.5625 9.558594 21.671875 9.574219 21.78125 9.628906 21.878906 9.683594 21.972656 9.773438 22.039062 9.882812 22.066406 10.15625 22.136719 10.441406 22.199219 10.730469 22.242188 10.75 22.246094 10.769531 22.25 10.792969 22.25 11 22.25 11.167969 22.101562 11.203125 21.898438 11.207031 21.878906 11.207031 21.855469 11.207031 21.835938 11.207031 21.628906 11.054688 21.457031 10.855469 21.425781zM12.957031 15.144531L17.015625 9.78125C17.152344 9.578125 17.128906 9.308594 16.957031 9.136719 16.78125 8.960938 16.511719 8.9375 16.292969 9.085938L10.964844 13.121094C10.609375 13.363281 10.378906 13.75 10.339844 14.179688 10.300781 14.609375 10.453125 15.027344 10.757812 15.332031 11.03125 15.605469 11.394531 15.757812 11.777344 15.757812 11.820312 15.757812 11.867188 15.753906 11.914062 15.75 12.339844 15.710938 12.726562 15.484375 12.957031 15.144531zM11.835938 14.925781C11.652344 14.941406 11.472656 14.878906 11.34375 14.746094 11.210938 14.617188 11.148438 14.4375 11.164062 14.253906 11.183594 14.070312 11.277344 13.90625 11.445312 13.792969L14.949219 11.144531 12.285156 14.660156C12.183594 14.8125 12.019531 14.910156 11.835938 14.925781zM11.835938 14.925781"/>
</svg>

<svg xmlns="http://www.w3.org/2000/svg" width="32" height="32" viewBox="0 0 24 24">
    <path d="M13.7 4.285c.48-.453.784-1.09.784-1.8A2.486 2.486 0 0 0 12 0a2.486 2.486 0 0 0-2.484 2.484c0 .711.304 1.348.785 1.801-4.668.813-8.23 4.887-8.23 9.785C2.07 19.543 6.522 24 12 24s9.93-4.457 9.93-9.93c0-4.898-3.563-8.972-8.23-9.785zM12 .828c.914 0 1.656.742 1.656 1.656 0 .77-.531 1.41-1.242 1.594v-1.18h.414a.414.414 0 0 0 0-.828h-1.656a.414.414 0 0 0 0 .828h.414v1.18A1.65 1.65 0 0 1 12 .828zm0 22.344c-5.02 0-9.102-4.082-9.102-9.102 0-5.02 4.082-9.105 9.102-9.105 5.02 0 9.102 4.086 9.102 9.105 0 5.02-4.082 9.102-9.102 9.102zm0 0"/>
    <path d="M19.828 14.871a.42.42 0 0 0-.473.348c-.039.261-.093.52-.16.761a.418.418 0 0 0 .293.508.422.422 0 0 0 .512-.297c.07-.28.133-.566.172-.843.004-.02.004-.047.004-.067a.415.415 0 0 0-.348-.41zm0 0M4.172 13.25c.023.004.043.008.066.008a.419.419 0 0 0 .41-.352c.04-.265.094-.52.16-.761a.417.417 0 0 0-.046-.313.403.403 0 0 0-.25-.195.423.423 0 0 0-.508.293 8.814 8.814 0 0 0-.176.847c-.004.02-.004.043-.004.063 0 .203.149.379.348.41zm0 0M4.652 15.297c0-.02 0-.04-.004-.063a7.317 7.317 0 0 1-.085-.773.411.411 0 0 0-.72-.254.38.38 0 0 0-.1.297c.01.285.038.574.085.86.031.198.207.35.41.35.02 0 .04-.003.067-.007a.413.413 0 0 0 .347-.41zm0 0M6.75 19.352c-.004-.008-.008-.012-.02-.016a8.069 8.069 0 0 1-.52-.578.43.43 0 0 0-.581-.063.417.417 0 0 0-.149.278.39.39 0 0 0 .09.304c.18.23.375.446.575.641.003.004.003.004.003.008h.004c.004.004.008.012.012.015a.433.433 0 0 0 .297.122.418.418 0 0 0 .414-.418.409.409 0 0 0-.117-.286zm0 0M5.047 16.742a.413.413 0 0 0-.531-.238.404.404 0 0 0-.235.219.431.431 0 0 0-.008.312c.106.27.22.535.352.793a.409.409 0 0 0 .555.18c.14-.07.23-.211.23-.367a.393.393 0 0 0-.047-.188 8.482 8.482 0 0 1-.316-.71zm0 0M19.344 12.828c0 .02.004.04.008.063.039.254.066.515.082.773.011.219.191.39.41.39h.027a.41.41 0 0 0 .387-.433 7.614 7.614 0 0 0-.09-.86.413.413 0 0 0-.473-.347.42.42 0 0 0-.351.414zm0 0M10.762 6.719c.023 0 .043 0 .066-.004.25-.04.512-.067.774-.082a.411.411 0 0 0 .39-.434.404.404 0 0 0-.433-.39 7.88 7.88 0 0 0-.864.09.415.415 0 0 0-.343.472.412.412 0 0 0 .41.348zm0 0M18.656 10.727c.11.214.207.437.293.66a.416.416 0 0 0 .531.238.42.42 0 0 0 .243-.535 7.086 7.086 0 0 0-.356-.79.424.424 0 0 0-.555-.183.417.417 0 0 0-.23.371c0 .063.02.13.047.188zm0 0M15.371 7.426l.031.015c.22.114.438.239.645.375a.41.41 0 0 0 .574-.125c.059-.09.078-.203.059-.308a.41.41 0 0 0-.184-.262 8.834 8.834 0 0 0-.746-.434.425.425 0 0 0-.559.184.407.407 0 0 0 .18.555zm0 0M13.16 6.71c.25.044.508.099.762.165a.413.413 0 0 0 .21-.8 7.818 7.818 0 0 0-.82-.173c-.007-.004-.015-.004-.03-.004l-.02-.007a.41.41 0 0 0-.45.347c-.003.024-.003.043-.003.063a.41.41 0 0 0 .351.41zm0 0M4.805 10.871a.414.414 0 0 0 .55-.172l.008-.011c.11-.227.242-.454.387-.672a.4.4 0 0 0 .055-.313.408.408 0 0 0-.176-.262.428.428 0 0 0-.574.125c-.157.243-.301.493-.434.75a.44.44 0 0 0-.043.188c0 .156.086.297.227.367zm0 0M17.281 19.324c-.004 0-.004.004-.008.004l-.011.008c-.18.187-.371.355-.563.508a.402.402 0 0 0-.148.281.413.413 0 0 0 .094.305.412.412 0 0 0 .582.058c.218-.183.43-.375.628-.566 0-.008.004-.012.008-.012v-.004a.41.41 0 0 0 .125-.293.41.41 0 0 0-.125-.293.424.424 0 0 0-.582.004zm0 0M15.957 20.875a.417.417 0 0 0-.559-.176 7.32 7.32 0 0 1-.714.313.457.457 0 0 0-.227.218.453.453 0 0 0-.008.32.42.42 0 0 0 .387.266c.05 0 .101-.007.148-.03.266-.099.524-.216.778-.345l.093-.046h-.02a.41.41 0 0 0 .165-.329.457.457 0 0 0-.043-.191zm0 0M19.2 17.254a.42.42 0 0 0-.555.183c-.118.231-.247.458-.387.672a.416.416 0 0 0 .695.453c.156-.246.3-.496.43-.753a.45.45 0 0 0 .043-.184c0-.16-.086-.3-.227-.371zm0 0M18.512 9.152a.377.377 0 0 0-.09-.3 8.64 8.64 0 0 0-.563-.625l-.007-.012c-.004 0-.004-.004-.008-.008a.421.421 0 0 0-.586.004.405.405 0 0 0-.121.289.46.46 0 0 0 .09.262h-.004l.05.047c.176.175.348.363.508.562a.407.407 0 0 0 .32.152.409.409 0 0 0 .41-.371zm0 0M13.184 21.418c-.254.043-.512.07-.774.082a.413.413 0 0 0-.39.438c.011.222.19.39.41.39h.027c.281-.015.57-.047.86-.09a.426.426 0 0 0 .347-.414c0-.023 0-.043-.004-.062a.424.424 0 0 0-.476-.344zm0 0M7.371 7.7a.435.435 0 0 0-.586-.06c-.223.18-.433.372-.625.567l-.02.02a.405.405 0 0 0-.12.285.418.418 0 0 0 .414.414.407.407 0 0 0 .293-.121L6.73 8.8c.184-.184.38-.356.579-.516A.423.423 0 0 0 7.37 7.7zm0 0M9.563 6.582a.425.425 0 0 0-.536-.234c-.27.101-.539.218-.793.351a.411.411 0 0 0-.222.367c0 .063.011.13.039.188a.424.424 0 0 0 .558.184l.016-.008c.223-.114.457-.22.7-.313a.428.428 0 0 0 .23-.215.433.433 0 0 0 .008-.32zm0 0M8.637 20.715a6.76 6.76 0 0 1-.676-.39.435.435 0 0 0-.57.124.408.408 0 0 0-.059.317c.023.105.086.199.18.257.238.157.492.301.75.434.058.027.125.04.187.04a.421.421 0 0 0 .371-.224.415.415 0 0 0 .043-.191.407.407 0 0 0-.226-.367zm0 0M10.855 21.426a10.123 10.123 0 0 1-.761-.156.413.413 0 1 0-.211.796 8.347 8.347 0 0 0 .91.184.415.415 0 0 0 .41-.352c.004-.02.004-.043.004-.062a.416.416 0 0 0-.352-.41zm0 0M12.957 15.145l4.059-5.364a.508.508 0 0 0-.059-.644.514.514 0 0 0-.664-.051l-5.328 4.035a1.439 1.439 0 0 0-.207 2.211 1.437 1.437 0 0 0 2.199-.187zm-1.121-.22a.608.608 0 0 1-.492-.179.608.608 0 0 1-.18-.492.625.625 0 0 1 .281-.461l3.504-2.648-2.664 3.515a.6.6 0 0 1-.45.266zm0 0"/>
</svg>
